X: 1747
T: One of the Boys   #1
R: hornpipe, reel
%S: s:2 b:16(8+8)
B: O'Neill's 1850 #1747
Z: Bob Safranek, rjs@gsp.org
Z: Transcription by A. LEE WORMAN
M: C|
L: 1/8
K: Bb
F2 |\
B2(Bc) BFDF | BcdB edcB | Bdfg fdBd | edcB AcAF ||\
B2(Bc) BFDF | BcdB edcB | Bdfg fecd | B2B2 B2 :|
|: (Bd) |\
f2(fg) fdfb | g2(ga) gfga | bagf edcB | ABcA F2(de) ||\
f2(fg) fdfb | g2(ga) gfga | b2(fd) ecAc | B2B2 B2 :|
